X: 2
T: Ordinary Man
C:Peter Hames
M:C
K:Am
L:1/8
   "Intro".E .D.E |"F"F4 "G"G4| "Am"A4-Ac BA |"F"A4 "G"G4|"C"E4 "Am"G4|\
      "F"A4 "G"G4| "F"A4- "G7"A2 z G/G/|
w: |**I'm an
|:"Am"c>c cc "G"B2 BB|"F"A>B AG "Am"E3 E|
